symbols/web/contacts/materialsymbolsrounded/contacts_wght100_48px.svg

<svg xmlns="http://www.w3.org/2000/svg" height="48" width="48"><path d="M9.6 41.8q-.25 0-.4-.15-.15-.15-.15-.4t.15-.4q.15-.15.4-.15h28.8q.25 0 .4.15.15.15.15.4t-.15.4q-.15.15-.4.15Zm0-34.5q-.25 0-.4-.15-.15-.15-.15-.4t.15-.4q.15-.15.4-.15h28.8q.25 0 .4.15.15.15.15.4t-.15.4q-.15.15-.4.15ZM24 28.55q1.95 0 3.3-1.35 1.35-1.35 1.35-3.35 0-1.95-1.35-3.3-1.35-1.35-3.3-1.35-1.95 0-3.3 1.35-1.35 1.35-1.35 3.3 0 2 1.35 3.35t3.3 1.35ZM9.2 37.4q-1.15 0-1.925-.775Q6.5 35.85 6.5 34.7V13.3q0-1.2.775-1.95T9.2 10.6h29.6q1.15 0 1.925.775.775.775.775 1.925v21.4q0 1.15-.775 1.925-.775.775-1.925.775Zm5.55-1.1q2.35-1.9 4.7-2.7 2.35-.8 4.55-.8 2.2 0 4.575.8t4.675 2.7h5.55q.6 0 1.1-.5.5-.5.5-1.1V13.3q0-.6-.5-1.1-.5-.5-1.1-.5H9.2q-.6 0-1.1.5-.5.5-.5 1.1v21.4q0 .6.5 1.1.5.5 1.1.5Zm2.15 0h14.25q-1.5-1.15-3.275-1.775T24 33.9q-2.1 0-3.875.625T16.9 36.3Zm7.1-8.85q-1.45 0-2.5-1.05t-1.05-2.55q0-1.45 1.05-2.5T24 20.3q1.45 0 2.5 1.05t1.05 2.5q0 1.5-1.05 2.55-1.05 1.05-2.5 1.05ZM24 24Z"/></svg>

<svg xmlns="http://www.w3.org/2000/svg" height="48" width="48"><path d="M9.6 41.8Q9.35 41.8 9.2 41.65Q9.05 41.5 9.05 41.25Q9.05 41 9.2 40.85Q9.35 40.7 9.6 40.7H38.4Q38.65 40.7 38.8 40.85Q38.95 41 38.95 41.25Q38.95 41.5 38.8 41.65Q38.65 41.8 38.4 41.8ZM9.6 7.3Q9.35 7.3 9.2 7.15Q9.05 7 9.05 6.75Q9.05 6.5 9.2 6.35Q9.35 6.2 9.6 6.2H38.4Q38.65 6.2 38.8 6.35Q38.95 6.5 38.95 6.75Q38.95 7 38.8 7.15Q38.65 7.3 38.4 7.3ZM24 28.55Q25.95 28.55 27.3 27.2Q28.65 25.85 28.65 23.85Q28.65 21.9 27.3 20.55Q25.95 19.2 24 19.2Q22.05 19.2 20.7 20.55Q19.35 21.9 19.35 23.85Q19.35 25.85 20.7 27.2Q22.05 28.55 24 28.55ZM9.2 37.4Q8.05 37.4 7.275 36.625Q6.5 35.85 6.5 34.7V13.3Q6.5 12.1 7.275 11.35Q8.05 10.6 9.2 10.6H38.8Q39.95 10.6 40.725 11.375Q41.5 12.15 41.5 13.3V34.7Q41.5 35.85 40.725 36.625Q39.95 37.4 38.8 37.4ZM14.75 36.3Q17.1 34.4 19.45 33.6Q21.8 32.8 24 32.8Q26.2 32.8 28.575 33.6Q30.95 34.4 33.25 36.3H38.8Q39.4 36.3 39.9 35.8Q40.4 35.3 40.4 34.7V13.3Q40.4 12.7 39.9 12.2Q39.4 11.7 38.8 11.7H9.2Q8.6 11.7 8.1 12.2Q7.6 12.7 7.6 13.3V34.7Q7.6 35.3 8.1 35.8Q8.6 36.3 9.2 36.3ZM16.9 36.3H31.15Q29.65 35.15 27.875 34.525Q26.1 33.9 24 33.9Q21.9 33.9 20.125 34.525Q18.35 35.15 16.9 36.3ZM24 27.45Q22.55 27.45 21.5 26.4Q20.45 25.35 20.45 23.85Q20.45 22.4 21.5 21.35Q22.55 20.3 24 20.3Q25.45 20.3 26.5 21.35Q27.55 22.4 27.55 23.85Q27.55 25.35 26.5 26.4Q25.45 27.45 24 27.45ZM24 24Q24 24 24 24Q24 24 24 24Q24 24 24 24Q24 24 24 24Q24 24 24 24Q24 24 24 24Q24 24 24 24Q24 24 24 24Q24 24 24 24Q24 24 24 24Q24 24 24 24Q24 24 24 24Z"/></svg>
